public/images/hashed/bea59a2d7ba3b33bf586ec333c9ab8c0.svg

<svg xmlns="http://www.w3.org/2000/svg" width="80" height="80"><defs><linearGradient id="a" x1="0%" x2="100%" y1="100%" y2="0%"><stop offset="0%" stop-color="#1B660F"/><stop offset="100%" stop-color="#6CAE3E"/></linearGradient></defs><g fill="none" fill-rule="evenodd"><path fill="url(#a)" d="M0 0h80v80H0z"/><path fill="#FFF" d="M50.406 55.813A5.412 5.412 0 0 1 45 50.406 5.412 5.412 0 0 1 50.406 45a5.412 5.412 0 0 1 5.406 5.406 5.412 5.412 0 0 1-5.406 5.407Zm0-12.813C46.322 43 43 46.322 43 50.406s3.322 7.407 7.406 7.407 7.406-3.323 7.406-7.407S54.49 43 50.406 43Zm15.301 21.114a1.152 1.152 0 0 1-1.62.085L58.102 58.8a11.438 11.438 0 0 0 1.524-1.706l5.995 5.4c.469.424.507 1.152.086 1.62ZM41 50.406C41 45.22 45.219 41 50.406 41s9.406 4.22 9.406 9.406c0 5.187-4.219 9.407-9.406 9.407S41 55.593 41 50.406Zm25.961 10.603-6.289-5.664a11.32 11.32 0 0 0 1.14-4.939C61.812 44.117 56.695 39 50.406 39 44.117 39 39 44.117 39 50.406c0 6.29 5.117 11.407 11.406 11.407 2.237 0 4.319-.657 6.082-1.774l6.261 5.647c.6.539 1.352.804 2.102.804.862 0 1.721-.35 2.342-1.038a3.158 3.158 0 0 0-.232-4.443ZM19 40.888c1.116-.247 2.103-.906 2.826-1.783l5.582 3.987A4.729 4.729 0 0 0 27 45c0 2.323 1.778 4.396 4 4.888V64H19V40.888ZM15 36c0-1.546 1.458-3.009 3-3.009s3 1.463 3 3.009c0 1.542-1.458 3-3 3s-3-1.458-3-3Zm17 6c1.542 0 3 1.458 3 3s-1.458 3-3 3-3-1.458-3-3 1.458-3 3-3Zm14-19c1.542 0 3 1.458 3 3s-1.458 3-3 3-3-1.458-3-3 1.458-3 3-3Zm15-6c1.542 0 3 1.458 3 3s-1.458 3-3 3-3-1.458-3-3 1.458-3 3-3ZM33 49.888c2.221-.492 4-2.565 4-4.888 0-1.001-.33-1.956-.884-2.757l8.519-11.474c.123.038.24.091.365.119V37h2v-6.112c2.221-.492 4-2.565 4-4.888 0-.134-.032-.263-.043-.395l5.697-3.256c.71 1.256 1.928 2.225 3.346 2.539V40h2V24.888c2.221-.492 4-2.565 4-4.888s-1.779-4.395-4-4.888V13h-2v2.112c-2.222.493-4 2.565-4 4.888 0 .134.031.263.043.396l-5.698 3.255c-.71-1.256-1.927-2.225-3.345-2.539V13h-2v8.112c-2.222.493-4 2.565-4 4.888 0 1.494.749 2.867 1.864 3.801l-8.193 11.033A5.016 5.016 0 0 0 33 40.112V13h-2v27.112a5.12 5.12 0 0 0-2.444 1.343l-5.775-4.126c.128-.429.219-.87.219-1.329 0-2.328-1.779-4.403-4-4.896V13h-2v18.104c-2.222.493-4 2.568-4 4.896 0 2.323 1.778 4.396 4 4.888V66h35v-2H33V49.888Z"/></g></svg>

<?xml version="1.0" encoding="UTF-8"?>
<svg width="80px" height="80px" viewBox="0 0 80 80" version="1.1" xmlns="http://www.w3.org/2000/svg" xmlns:xlink="http://www.w3.org/1999/xlink">
    <!-- Generator: Sketch 64 (93537) - https://sketch.com -->
    <title>Icon-Architecture/64/Arch_AWS-Cost-Explorer_64</title>
    <desc>Created with Sketch.</desc>
    <defs>
        <linearGradient x1="0%" y1="100%" x2="100%" y2="0%" id="linearGradient-1">
            <stop stop-color="#1B660F" offset="0%"></stop>
            <stop stop-color="#6CAE3E" offset="100%"></stop>
        </linearGradient>
    </defs>
    <g id="Icon-Architecture/64/Arch_AWS-Cost-Explorer_64" stroke="none" stroke-width="1" fill="none" fill-rule="evenodd">
        <g id="Icon-Architecture-BG/64/AWS-Cost-Management" fill="url(#linearGradient-1)">
            <rect id="Rectangle" x="0" y="0" width="80" height="80"></rect>
        </g>
        <path d="M50.406,55.813 C47.425,55.813 45,53.388 45,50.406 C45,47.425 47.425,45 50.406,45 C53.387,45 55.812,47.425 55.812,50.406 C55.812,53.388 53.387,55.813 50.406,55.813 L50.406,55.813 Z M50.406,43 C46.322,43 43,46.322 43,50.406 C43,54.49 46.322,57.813 50.406,57.813 C54.49,57.813 57.812,54.49 57.812,50.406 C57.812,46.322 54.49,43 50.406,43 L50.406,43 Z M65.707,64.114 C65.284,64.582 64.554,64.62 64.087,64.199 L58.102,58.8 C58.665,58.284 59.176,57.713 59.626,57.094 L65.621,62.494 C66.09,62.918 66.128,63.646 65.707,64.114 L65.707,64.114 Z M41,50.406 C41,45.22 45.219,41 50.406,41 C55.593,41 59.812,45.22 59.812,50.406 C59.812,55.593 55.593,59.813 50.406,59.813 C45.219,59.813 41,55.593 41,50.406 L41,50.406 Z M66.961,61.009 L60.672,55.345 C61.395,53.848 61.812,52.177 61.812,50.406 C61.812,44.117 56.695,39 50.406,39 C44.117,39 39,44.117 39,50.406 C39,56.696 44.117,61.813 50.406,61.813 C52.643,61.813 54.725,61.156 56.488,60.039 L62.749,65.686 C63.349,66.225 64.101,66.49 64.851,66.49 C65.713,66.49 66.572,66.14 67.193,65.452 C68.349,64.164 68.246,62.171 66.961,61.009 L66.961,61.009 Z M19,40.888 C20.116,40.641 21.103,39.982 21.826,39.105 L27.408,43.092 C27.146,43.687 27,44.333 27,45 C27,47.323 28.778,49.396 31,49.888 L31,64 L19,64 L19,40.888 Z M15,36 C15,34.454 16.458,32.991 18,32.991 C19.542,32.991 21,34.454 21,36 C21,37.542 19.542,39 18,39 C16.458,39 15,37.542 15,36 L15,36 Z M32,42 C33.542,42 35,43.458 35,45 C35,46.542 33.542,48 32,48 C30.458,48 29,46.542 29,45 C29,43.458 30.458,42 32,42 L32,42 Z M46,23 C47.542,23 49,24.458 49,26 C49,27.542 47.542,29 46,29 C44.458,29 43,27.542 43,26 C43,24.458 44.458,23 46,23 L46,23 Z M61,17 C62.542,17 64,18.458 64,20 C64,21.542 62.542,23 61,23 C59.458,23 58,21.542 58,20 C58,18.458 59.458,17 61,17 L61,17 Z M33,49.888 C35.221,49.396 37,47.323 37,45 C37,43.999 36.67,43.044 36.116,42.243 L44.635,30.769 C44.758,30.807 44.875,30.86 45,30.888 L45,37 L47,37 L47,30.888 C49.221,30.396 51,28.323 51,26 C51,25.866 50.968,25.737 50.957,25.605 L56.654,22.349 C57.364,23.605 58.582,24.574 60,24.888 L60,40 L62,40 L62,24.888 C64.221,24.396 66,22.323 66,20 C66,17.677 64.221,15.605 62,15.112 L62,13 L60,13 L60,15.112 C57.778,15.605 56,17.677 56,20 C56,20.134 56.031,20.263 56.043,20.396 L50.345,23.651 C49.635,22.395 48.418,21.426 47,21.112 L47,13 L45,13 L45,21.112 C42.778,21.605 41,23.677 41,26 C41,27.494 41.749,28.867 42.864,29.801 L34.671,40.834 C34.162,40.498 33.599,40.245 33,40.112 L33,13 L31,13 L31,40.112 C30.076,40.317 29.231,40.798 28.556,41.455 L22.781,37.329 C22.909,36.9 23,36.459 23,36 C23,33.672 21.221,31.597 19,31.104 L19,13 L17,13 L17,31.104 C14.778,31.597 13,33.672 13,36 C13,38.323 14.778,40.396 17,40.888 L17,66 L52,66 L52,64 L33,64 L33,49.888 Z" id="AWS-Cost-Explorer_Icon_64_Squid" fill="#FFFFFF"></path>
    </g>
</svg>
